packages/IcoMoon/src/ClearFormattingIcon/index.svg

<svg version="1.1" xmlns="http://www.w3.org/2000/svg" width="16" height="16" viewBox="0 0 16 16">
<path d="M0 14h9v2h-9zM14 2h-4.727l-2.871 11h-2.067l2.871-11h-4.205v-2h11zM14.528 16l-2.028-2.028-2.028 2.028-0.972-0.972 2.028-2.028-2.028-2.028 0.972-0.972 2.028 2.028 2.028-2.028 0.972 0.972-2.028 2.028 2.028 2.028z"></path>
</svg>

<svg xmlns="http://www.w3.org/2000/svg" viewBox="0 0 16 16">
  <path d="M0 14h9v2H0zM14 2H9.273L6.402 13H4.335L7.206 2H3.001V0h11zm.528 14L12.5 13.972 10.472 16l-.972-.972L11.528 13 9.5 10.972l.972-.972 2.028 2.028L14.528 10l.972.972L13.472 13l2.028 2.028z"/>
</svg>
